X:80
T: Der sich ein faules Gretchen nimmt (Band 1), S. 224
N: P0855
O: Lothringen
S: PINCK, Louis: Verklingende Weisen, Bd 1, Metz 1928]
R: Spottlied]
M: 2/4
L: 1/16
K: G
D2 | G2B2A2F2 | G2E2D2
D2 | E2E2F2F2 | G4z2
D2 | G2B2A2F2 | G2E2D2
D2 | E2E2FF2z | G4z2
D2 | G4d3c | B2B2B2B2 | B2d2d4 | B2d2d4
d3cc2c2 | e2d2B4 | A2A2B2ddc2A2 | G4z2

